X: 43
T:The Happy One-Step
% Nottingham Music Database
P:AABABA
S:Sharon Shannon/2 arr Eric
M:4/4
L:1/4
K:G
P:A
G/2B/2|"G"d/2G/2B/2d/2 -d/2G/2B/2d/2|"C"g/2c/2e/2g/2 -g/2a/2g/2e/2|\
"G"d/2G/2B/2d/2 -d/2G/2A/2B/2|"D"A/2G/2G/2E/2 D/2D/2G/2B/2|
"G"d/2G/2B/2d/2 -d/2G/2B/2d/2|"C"g/2c/2e/2g/2 -g/2a/2g/2e/2|\
"G"d/2B/2A/2G/2 "C"A/2G/2E/2D/2|"C"E/2G/2G/2G/2 -"G"G:|
P:B
g/2a/2|"G"b/2d/2b/2b/2 -b/2d/2b|"D"a/2d/2a/2a/2 -a/2d/2a|\
"Em"b/2d/2b/2b/2 -b/2d/2b|"C"c'/2e/2c'/2c'/2 -c'/2e/2c'|
"G"b/2d/2b/2b/2 -b/2d/2g/2b/2|"D"a/2d/2a/2a/2 -a/2d/2a|\
"Em"b/2d/2b/2b/2 -b/2d/2b|"c"c'/2d/2"b"b/2d/2 "a"a/2d/2"d"g/2e/2||


